X:1
T:If God Be for Us
T:If God Be for Us
T:James McGranahan
T:James McGranahan, 1887
T:Public Domain Courtesy of the Cyber Hymnal™
T:Public Domain Courtesy of the Cyber Hymnal™
C:James McGranahan
Z:Public Domain
Z:Courtesy of the Cyber Hymnal™
%%score ( 1 2 ) ( 3 4 )
L:1/8
Q:1/4=97
M:4/4
K:G
V:1 treble 
V:2 treble 
V:3 bass 
V:4 bass 
V:1
 D2 | [DB]2 [DB]>[CA] [B,G]3 [DG] | [CA][EG][DF][CE] [B,D]2 D2 | [EG]2 [EG][EG] [EG]2 [^DF][EG] | %4
w: 1.~Re-|joice in the Lord, O|let His mer- cy cheer, He|sun- ders the bands that en-|
w: 2.~Be|strong in the Lord, re-|joic- ing in His might, Be|loy- al and true, day by|
w: 3.~Con-|fide in His Word, His|prom- is- es so sure, In|Christ, they are “yea, and a-|
w: 4.~A-|bide in the Lord, se-|cure in His con- trol, ’Tis|life ev- er- last- ing be-|
 [FA]6 D2 | [DB]2 [DB]>[DA] [EG]3 [=FG] | [EA][EG][DF][CE] [B,D]2 [B,D]2 | %7
w: thrall; Re-|deemed by His blood, why|should we ev- er fear, Since|
w: day; When|e- vils as- sail, be|val- iant for the right, And|
w: men”; Tho’|earth pass a- way, they|ev- er shall en- dure, ’Tis|
w: gun; To|pluck from His hand the|weak- est, trem- bling soul, It|
 [CE][CF][B,G][EA] B2 [CDA]2 | [B,DG]6 ||"^Refrain" z D | [FA]2 [GB]2 [Ac]2 [FA]D | %11
w: Je- sus is our “all in|all”?|||
w: He will be our strength, our|stay.|If|God be for us, if|
w: writ- ten o’er and o’er a-|gain.|||
w: ne- ver, ne- ver can be|done.|||
 [GB]2 [Ac]2 [Bd]2 [GB][Ad] | [Gd]2 [Fd]2 [Gd]2 [Gd]2 | [Ge]>[Gd] [Gc][GB] [Fc]2 [FA]2 | %14
w: |||
w: God be for us, If|God be for us,|who can be a- gainst us,|
w: |||
w: |||
 [GB]2 z2 [E^c]2 z2 | d4- [Gd] z x2 | [^Gd]>[Gd] [Gd][Gd] [Bd]2 [Ac][=GB] | A4 G2 |] %18
w: ||||
w: Who, who,|who, Who|* can be a- gainst us, a-|gainst us?|
w: ||||
w: ||||
V:2
 D2 | x8 | x6 D2 | x8 | x6 D2 | x8 | x8 | x8 | x6 || x D | x7 D | x8 | x8 | x8 | x8 | F>FFF G2 x2 | %16
 x8 | (G2 F2) G2 |] %18
V:3
 D,2 | [G,,G,]2 [G,,G,]>[G,,D,] [G,,D,]3 [B,,D,] | [C,E,][C,G,][C,G,][C,G,] [G,,G,]2 [B,,G,]2 | %3
w: ~|~ ~ ~ ~ ~|~ ~ ~ ~ ~ ~|
 [E,G,]2 [E,B,][E,B,] [E,B,]2 [B,,B,][E,B,] | [D,D]6 [D,D]2 | [G,D]2 [G,D]>[G,C] [G,B,]3 [B,,D] | %6
w: ~ ~ ~ ~ ~ ~|~ ~|~ ~ ~ ~ ~|
 [C,C][C,C][C,G,][C,G,] [G,,G,]2 [G,,G,]2 | [C,G,][A,,D,][B,,G,][C,G,] [D,G,]2 [D,F,C]2 | %8
w: ~ ~ ~ ~ ~ ~|~ ~ ~ ~ ~ ~|
 [G,,G,B,]6 || z2 | z [D,D][D,D][D,D] [D,D]2 [D,D] z | z [G,D][G,D][G,D] [G,D]2 [G,D][F,C] | %12
w: ~||If God be for us,|If God be for us, ~|
 [G,B,]2 [A,C]2 [B,D]2 [G,B,]2 | C>[B,D] [A,D][G,D] [A,D]2 [D,D]2 | z2 [G,B,]2 z2 A,2 | %15
w: ~ ~ ~ ~|~ ~ ~ ~ ~ ~|Who who,|
 [D,A,]>[D,A,] [D,A,][D,A,C] [G,B,]2 [G,B,] z | [E,B,]>[E,B,] [E,B,][E,E] [A,E]2 [A,E][A,E] | %17
w: Who can be a- gainst us?||
 (E2 DC) [G,,G,B,]2 |] %18
w: |
V:4
 D,2 | x8 | x8 | x8 | x8 | x8 | x8 | x8 | x6 || x2 | x8 | x8 | x8 | C3/2 x13/2 | x6 A,2 | x8 | x8 | %17
 D,4 x2 |] %18

